svg/fluentui-system-icons/ic_fluent_question_circle_32_filled.svg

<svg width="32" height="32" viewBox="0 0 32 32" fill="none" xmlns="http://www.w3.org/2000/svg">
<path d="M16 2C23.732 2 30 8.26801 30 16C30 23.732 23.732 30 16 30C8.26801 30 2 23.732 2 16C2 8.26801 8.26801 2 16 2ZM17.5 22C17.5 21.1716 16.8284 20.5 16 20.5C15.1716 20.5 14.5 21.1716 14.5 22C14.5 22.8284 15.1716 23.5 16 23.5C16.8284 23.5 17.5 22.8284 17.5 22ZM14 12C14 11.4631 14.1801 10.9588 14.4974 10.6019C14.7984 10.2633 15.2714 10 16 10C17.3077 10 18.3823 11.3475 18.0299 12.7575C17.8492 13.4802 17.4195 13.8927 16.7726 14.5137C16.7151 14.5689 16.6557 14.6259 16.5947 14.6848C15.8662 15.3889 15 16.3268 15 17.9999C15 18.5522 15.4477 18.9999 16 18.9999C16.5523 18.9999 17 18.5522 17 17.9999C17 17.1729 17.3533 16.733 17.9845 16.1231C18.0448 16.0648 18.109 16.0042 18.176 15.9409C18.79 15.3608 19.6417 14.5561 19.9701 13.2425C20.6177 10.6525 18.6923 8 16 8C14.7286 8 13.7016 8.4867 13.0026 9.27314C12.3199 10.0412 12 11.0369 12 12C12 12.5523 12.4477 13 13 13C13.5523 13 14 12.5523 14 12Z" fill="#212121"/>
</svg>

<svg xmlns="http://www.w3.org/2000/svg" width="32" height="32"><path d="M16 2c7.732 0 14 6.268 14 14s-6.268 14-14 14S2 23.732 2 16 8.268 2 16 2Zm1.5 20a1.5 1.5 0 1 0-3 0 1.5 1.5 0 0 0 3 0ZM14 12c0-.537.18-1.041.497-1.398.301-.339.774-.602 1.503-.602 1.308 0 2.382 1.348 2.03 2.758-.18.722-.61 1.135-1.257 1.756l-.178.17C15.866 15.39 15 16.328 15 18a1 1 0 1 0 2 0c0-.827.353-1.267.985-1.877l.191-.182c.614-.58 1.466-1.385 1.794-2.699C20.618 10.652 18.692 8 16 8c-1.271 0-2.298.487-2.997 1.273C12.32 10.041 12 11.037 12 12a1 1 0 1 0 2 0Z"/></svg>
